packages/icons/src/feature-flag-stage.svg

<svg fill="none" viewBox="0 0 122 82" xmlns="http://www.w3.org/2000/svg"><path d="m38.59 63.875c-2.566-.718-1.464-5.41 2.053-8.608 3.517-3.199 12.643-10.4 22.223-6.368 8.364 4.645-13.651 19.608-24.277 14.976z" stroke="#000" stroke-linecap="round" stroke-linejoin="round"/><path d="m48.157 50.37 14.537 5.614zm5.37-2.242c3.301 1.275 7.602 3.325 10.984 4.63l-10.985-4.63zm-10.554 5.136 15.54 6m-11.028 4.704-9.524-3.678zm6.048-2.444-13.533-5.227 13.534 5.227z" stroke="#000" stroke-linecap="round" stroke-linejoin="round"/><path d="m57.301 74.867-7.285-6.765 1.041-11.968 13.009-3.122 7.285 6.764-1.561 11.969-12.49 3.122z" fill="#fff"/><g stroke="#000"><path d="m58.958 55.624c1.425 3.744 2.805 7.461 3.928 11.306m-.644.296c3.275-2.728 6.003-4.911 9.625-8.315" stroke-linecap="round" stroke-linejoin="round"/><path d="m57.675 55.704c3.212.913 6.428 1.82 9.622 2.797 1.726.528 3.435 1.12 5.212 1.453m-12.996-3.642c1.092-.546 2.73-1.638 4.912-3.275m-.095-.3c2.824 3.029 4.46 4.666 7.19 6.849m-20.192-3.321c3.284.216 5.382 0 8.672 0m-8.672.047c3.275-1.092 7.64-2.183 13.098-3.82m-14.19 15.28c3.275-.546 7.095-.546 12.802-1.368" stroke-linecap="round" stroke-linejoin="round"/><path d="m50.814 68.436c-.068-.712-.042-1.193.245-1.866.731-1.715 1.82-3.276 2.967-4.736 1.725-2.196 3.647-4.172 5.688-6.067m-8.932.545c0 3.82-.546 8.731-.546 12.006" stroke-linecap="round" stroke-linejoin="round"/><path d="m49.496 67.41a36.174 36.174 0 0 0 5.88 5.587 25.388 25.388 0 0 0 2.339 1.581c.089.053.346.137.2.21m-.561.08c1.144-2.24 3.797-6.005 5.434-8.188m-5.458 8.186c1.362-.188 9.824-2.183 13.098-3.274m-8.022-5.624c2.565 2.35 5.913 4.148 8.022 5.624m0-.546c0-3.82.546-7.094.546-12.551m-33.327-31.401c7.15 6.074 17.614 15.154 26.192 22.443m-25.037-23.357c-.355 12.008-.451 24.521-1.582 35.964" stroke-linecap="round" stroke-linejoin="round"/><path d="m63.128 48.737c-9.58-4.032-18.706 3.169-22.223 6.367-3.517 3.199-4.619 7.89-2.053 8.609" stroke-linecap="round" stroke-linejoin="round"/></g><path d="m33.101 14.883 3.318 7.781c4.078 2.279 7.589.16 9.043-.188 3.26-.779 5.577-1.525 8.374-.72l-2.883-8.51s-5.8-.183-9.003 2.122c-2.563 1.844-5.796.13-8.849-.485z" fill="#ffc101"/><path d="m38.606 27.793-5.506-12.91c3.053.615 6.286 2.329 8.849.485 3.203-2.305 9.003-2.122 9.003-2.122l2.883 8.51c-2.797-.805-5.114-.059-8.374.72-1.454.348-4.965 2.467-9.043.188" stroke="#000" stroke-linecap="round"/><path d="m40 19.272 2.564 1.728 2.436-5" stroke="#000" stroke-linecap="round" stroke-linejoin="round"/><path d="m67 35.9h6.073m4.504 0h6.423m-8.58 2.282v4.818m0-8.906v-5.094m4.58 32.393h6.073m4.504 0h6.423m-8.58 2.445v5.162m0-9.542v-5.458" stroke="#b0b1c4" stroke-linecap="round"/><path d="m30.972 41c-1.284 6.068-2.846 11.756-1.38 17.904 1.141 4.786 3.112 8.784 5.408 13.096m-8.5-8.083c2.97 2.81 5.849 5.643 9.185 8.01m-.685.073c-.34-3.674-.822-7.317-1-11" stroke="#b0b1c4" stroke-linecap="round" stroke-width=".75"/></svg>

<svg fill="none" xmlns="http://www.w3.org/2000/svg" viewBox="0 0 122 82"><path d="M38.59 63.875c-2.566-.718-1.464-5.41 2.053-8.608 3.517-3.199 12.643-10.4 22.223-6.368 8.364 4.645-13.651 19.608-24.277 14.976z" stroke="#000" stroke-linecap="round" stroke-linejoin="round"/><path d="M48.157 50.37l14.537 5.614-14.537-5.614zm5.37-2.242c3.301 1.275 7.602 3.325 10.984 4.63l-10.985-4.63zM42.973 53.264l15.54 6m-11.028 4.704l-9.524-3.678 9.524 3.678zm6.048-2.444L40 56.297l13.534 5.227z" stroke="#000" stroke-linecap="round" stroke-linejoin="round"/><path d="M57.301 74.867l-7.285-6.765 1.041-11.968 13.009-3.122 7.285 6.764-1.561 11.969L57.3 74.867z" fill="#fff"/><path d="M58.958 55.624c1.425 3.744 2.805 7.461 3.928 11.306M62.242 67.226c3.275-2.728 6.003-4.911 9.625-8.315" stroke="#000" stroke-linecap="round" stroke-linejoin="round"/><path d="M57.675 55.704c3.212.913 6.428 1.82 9.622 2.797 1.726.528 3.435 1.12 5.212 1.453M59.513 56.312c1.092-.546 2.73-1.638 4.912-3.275M64.33 52.737c2.824 3.029 4.46 4.666 7.19 6.849M51.328 56.265c3.284.216 5.382 0 8.672 0M51.328 56.312c3.275-1.092 7.64-2.183 13.098-3.82M50.236 67.772c3.275-.546 7.095-.546 12.802-1.368" stroke="#000" stroke-linecap="round" stroke-linejoin="round"/><path d="M50.814 68.436c-.068-.712-.042-1.193.245-1.866.731-1.715 1.82-3.276 2.967-4.736 1.725-2.196 3.647-4.172 5.688-6.067M50.782 56.312c0 3.82-.546 8.731-.546 12.006" stroke="#000" stroke-linecap="round" stroke-linejoin="round"/><path d="M49.496 67.41a36.174 36.174 0 005.88 5.587 25.388 25.388 0 002.339 1.581c.089.053.346.137.2.21M57.354 74.868c1.144-2.24 3.797-6.005 5.434-8.188M57.33 74.866c1.362-.188 9.824-2.183 13.098-3.274M62.406 65.968c2.565 2.35 5.913 4.148 8.022 5.624M70.428 71.046c0-3.82.546-7.094.546-12.551M37.647 27.094c7.15 6.074 17.614 15.154 26.192 22.443M38.802 26.18c-.355 12.008-.451 24.521-1.582 35.964" stroke="#000" stroke-linecap="round" stroke-linejoin="round"/><path d="M63.128 48.737c-9.58-4.032-18.706 3.169-22.223 6.367-3.517 3.199-4.619 7.89-2.053 8.609" stroke="#000" stroke-linecap="round" stroke-linejoin="round"/><path d="M33.101 14.883l3.318 7.781c4.078 2.279 7.589.16 9.043-.188 3.26-.779 5.577-1.525 8.374-.72l-2.883-8.51s-5.8-.183-9.003 2.122c-2.563 1.844-5.796.13-8.849-.485z" fill="#FFC101"/><path d="M38.606 27.793L33.1 14.883c3.053.615 6.286 2.329 8.849.485 3.203-2.305 9.003-2.122 9.003-2.122l2.883 8.51c-2.797-.805-5.114-.059-8.374.72-1.454.348-4.965 2.467-9.043.188" stroke="#000" stroke-linecap="round"/><path d="M40 19.272L42.564 21 45 16" stroke="#000" stroke-linecap="round" stroke-linejoin="round"/><path d="M67 35.9h6.073m4.504 0H84m-8.58 2.282V43m0-8.906V29M80 61.393h6.073m4.504 0H97m-8.58 2.445V69m0-9.542V54" stroke="#B0B1C4" stroke-linecap="round"/><path d="M30.972 41c-1.284 6.068-2.846 11.756-1.38 17.904C30.733 63.69 32.704 67.688 35 72M26.5 63.917c2.97 2.81 5.849 5.643 9.185 8.01M35 72c-.34-3.674-.822-7.317-1-11" stroke="#B0B1C4" stroke-width=".75" stroke-linecap="round"/></svg>
